storage/app/icons/phosphoricons/regular/soccer-ball.svg

<svg xmlns="http://www.w3.org/2000/svg" fill="currentColor" viewBox="0 0 256 256"><path d="M128 24a104 104 0 1 0 104 104A104.11 104.11 0 0 0 128 24m76.52 147.42H170.9l-9.26-12.76 12.63-36.78 15-4.89 26.24 20.13a87.4 87.4 0 0 1-10.99 34.3m-164-34.3L66.71 117l15 4.89 12.63 36.78-9.24 12.75H51.48a87.4 87.4 0 0 1-11.01-34.3Zm10-50.64 5.51 18.6-15.32 11.69a87.3 87.3 0 0 1 9.72-30.29ZM109 152l-11.46-33.35L128 97.71l30.46 20.94L147 152Zm91.07-46.92 5.51-18.6a87.3 87.3 0 0 1 9.72 30.29Zm-6.2-35.38-9.51 32.08-15.07 4.89L136 83.79V68.21l29.09-20a88.6 88.6 0 0 1 28.77 21.49Zm-47.8-27.83L128 54.29l-18.07-12.42a88.2 88.2 0 0 1 36.14 0m-55.16 6.34 29.09 20v15.58l-33.28 22.88-15.07-4.89-9.51-32.08a88.6 88.6 0 0 1 28.77-21.49M63.15 187.42h20.37l7.17 20.27a88.4 88.4 0 0 1-27.54-20.27M110 214.13l-11.88-33.42 9.23-12.71h41.3l9.23 12.71-11.83 33.42a88 88 0 0 1-36.1 0Zm55.36-6.44 7.17-20.27h20.37a88.4 88.4 0 0 1-27.59 20.27Z"/></svg>

<svg xmlns="http://www.w3.org/2000/svg" viewBox="0 0 256 256" fill="currentColor"><path d="M128,24A104,104,0,1,0,232,128,104.11,104.11,0,0,0,128,24Zm76.52,147.42H170.9l-9.26-12.76,12.63-36.78,15-4.89,26.24,20.13A87.38,87.38,0,0,1,204.52,171.42Zm-164-34.3L66.71,117l15,4.89,12.63,36.78L85.1,171.42H51.48A87.38,87.38,0,0,1,40.47,137.12Zm10-50.64,5.51,18.6L40.71,116.77A87.33,87.33,0,0,1,50.43,86.48ZM109,152,97.54,118.65,128,97.71l30.46,20.94L147,152Zm91.07-46.92,5.51-18.6a87.33,87.33,0,0,1,9.72,30.29Zm-6.2-35.38-9.51,32.08-15.07,4.89L136,83.79V68.21l29.09-20A88.58,88.58,0,0,1,193.86,69.7ZM146.07,41.87,128,54.29,109.93,41.87a88.24,88.24,0,0,1,36.14,0ZM90.91,48.21l29.09,20V83.79L86.72,106.67l-15.07-4.89L62.14,69.7A88.58,88.58,0,0,1,90.91,48.21ZM63.15,187.42H83.52l7.17,20.27A88.4,88.4,0,0,1,63.15,187.42ZM110,214.13,98.12,180.71,107.35,168h41.3l9.23,12.71-11.83,33.42a88,88,0,0,1-36.1,0Zm55.36-6.44,7.17-20.27h20.37A88.4,88.4,0,0,1,165.31,207.69Z"/></svg>
